X: 6807
T: Charles Sutherland
R: reel
M: 4/4
K: Fmajor
f2- fa gefd|(3ccc Af dcBA|d2Bd cfaf|gagf egc'2|
fefa gefd|(3ccc Af dcBA|d2 Bd cac'a|1 bgeg f3A/c/:|2 bgeg f4||
a2fa c'2a2|(3ddd b2 (3ccc a2|(3BBB gB Afaf|gagf egc'2|
a2fa c'agf|dfbd cfac|dfbf cac'a|bgec f4|
a2fa c'2a2|(3ddd bd (3ccc ac|(3BBB gB Afaf|gagf egc'2|
a2fa c'agf|(3ddd bd (3ccc ac|Bdbd cac'a|bgec f3A/c/||

